packages/icons/src/svg/environment.svg

<svg xmlns="http://www.w3.org/2000/svg" viewBox="0 0 16 16">
	<path d="M4 4h8v2H4zm0 3h8v2H4zm0 3h8v2H4zm-2 3V3L0 1v14zm14 2V1l-2 2v10zM3 2h10l2-2H1zM1 16h14l-2-2H3z"/>
</svg>

<svg xmlns="http://www.w3.org/2000/svg" viewBox="0 0 16 16">
  <path d="M4,4h8V6H4ZM4,7h8V9H4Zm0,3h8v2H4ZM2,13V3L0,1V15Zm14,2V1L14,3V13ZM3,2H13l2-2H1ZM1,16H15l-2-2H3Z"/>
</svg>
